Origami/24x24/apps/mstdn.svg

<svg width="24" height="24" version="1.1" viewBox="0 0 24 24" xmlns="http://www.w3.org/2000/svg">
 <path d="m9 2.5c-3.324 0-6 2.6268085-6 5.890625v3.21875c0 0.0066 0.00193 0.01292 0.00195 0.01953 0.0038 2.160167 0.2086077 6.949878 1.9023438 8.878906 1.5294802 1.741953 5.0960722 1.992189 6.5371122 1.992189 2.560937 0 4.558594-1.001953 4.558594-1.001953v-1.505859s-2.40235 0.540213-4.226562 0.507812c-1.252698-0.02225-2.0687694-0.350468-2.6074224-1.162109-0.227911-0.343417-0.1496455-1.281085-0.265625-1.837891-3.738e-4 -0.0018 3.734e-4 -0.0041 0-0.0059 0.0335145 5.77e-4 0.06596 0.0059 0.0996094 0.0059h6c3.324 0 6-2.626808 6-5.890625v-3.21875c0-3.2638165-2.676-5.890625-6-5.890625z" style="opacity:.2"/>
 <rect x="3" y="2" width="18" height="15" rx="6" ry="5.891" style="fill:#3088d4"/>
 <path d="m 3.0164755,10 h 5.283113 c 0,0 0.025799,4.242684 0.600131,7 0.1159795,0.556806 0.03865,1.494128 0.266561,1.837545 C 9.7049335,19.649186 10.521357,19.97775 11.774055,20 13.598268,20.032401 16,19.492779 16,19.492779 v 1.504333 C 16,20.997112 14.001977,22 11.44104,22 10,22 6.432902,21.749171 4.9034249,20.00722 2.6939006,17.49075 3.0164755,10 3.0164755,10 Z" style="fill:#3088d4"/>
 <circle cx="8" cy="8.5" r="1" style="opacity:.2"/>
 <circle cx="8" cy="8" r="1" style="fill:#ffffff"/>
 <path d="m9 2c-3.324 0-6 2.6268085-6 5.890625v0.5c0-3.2638165 2.676-5.890625 6-5.890625h6c3.324 0 6 2.6268085 6 5.890625v-0.5c0-3.2638165-2.676-5.890625-6-5.890625h-6zm-0.0996094 15.494141c3.734e-4 0.0018-3.738e-4 0.004059 0 0.005859 0.1159795 0.556806 0.037714 1.494474 0.265625 1.837891 0.538653 0.811641 1.3547244 1.139859 2.6074224 1.162109 1.824212 0.032401 4.226562-0.507812 4.226562-0.507812v-0.5s-2.402351 0.540213-4.226562 0.507812c-1.252699-0.02225-2.0687694-0.350468-2.6074224-1.162109-0.1712751-0.258078-0.1828712-0.826359-0.2207031-1.341797-0.0148746-0.001266-0.0298211-0.001693-0.0449219-0.001953z" style="fill:#ffffff;opacity:.2"/>
</svg>

<svg xmlns="http://www.w3.org/2000/svg" width="24" height="24" version="1.1" viewBox="0 0 24 24">
 <path style="opacity:0.2" d="M 9,2.5 C 5.676,2.5 3,5.1268085 3,8.390625 v 3.21875 c 0,0.0066 0.00193,0.01292 0.00195,0.01953 0.0038,2.160167 0.2086077,6.949878 1.9023438,8.878906 C 6.433774,22.249764 10.000366,22.5 11.441406,22.5 14.002343,22.5 16,21.498047 16,21.498047 v -1.505859 c 0,0 -2.40235,0.540213 -4.226562,0.507812 C 10.52074,20.47775 9.7046686,20.149532 9.1660156,19.337891 8.9381046,18.994474 9.0163701,18.056806 8.9003906,17.5 c -3.738e-4,-0.0018 3.734e-4,-0.0041 0,-0.0059 C 8.9339051,17.494677 8.9663506,17.5 9,17.5 h 6 c 3.324,0 6,-2.626808 6,-5.890625 V 8.390625 C 21,5.1268085 18.324,2.5 15,2.5 Z"/>
 <rect style="fill:#3088d4" width="18" height="15" x="3" y="2" rx="6" ry="5.891"/>
 <path style="fill:#3088d4" d="m 3.0164755,10 h 5.283113 c 0,0 0.025799,4.242684 0.600131,7 0.1159795,0.556806 0.03865,1.494128 0.266561,1.837545 C 9.7049335,19.649186 10.521357,19.97775 11.774055,20 13.598268,20.032401 16,19.492779 16,19.492779 v 1.504333 C 16,20.997112 14.001977,22 11.44104,22 10,22 6.432902,21.749171 4.9034249,20.00722 2.6939006,17.49075 3.0164755,10 3.0164755,10 Z"/>
 <circle style="opacity:0.2" cx="8" cy="8.5" r="1"/>
 <circle style="fill:#ffffff" cx="8" cy="8" r="1"/>
 <path style="opacity:0.2;fill:#ffffff" d="M 9 2 C 5.676 2 3 4.6268085 3 7.890625 L 3 8.390625 C 3 5.1268085 5.676 2.5 9 2.5 L 15 2.5 C 18.324 2.5 21 5.1268085 21 8.390625 L 21 7.890625 C 21 4.6268085 18.324 2 15 2 L 9 2 z M 8.9003906 17.494141 C 8.900764 17.495941 8.9000168 17.4982 8.9003906 17.5 C 9.0163701 18.056806 8.9381046 18.994474 9.1660156 19.337891 C 9.7046686 20.149532 10.52074 20.47775 11.773438 20.5 C 13.59765 20.532401 16 19.992188 16 19.992188 L 16 19.492188 C 16 19.492188 13.597649 20.032401 11.773438 20 C 10.520739 19.97775 9.7046686 19.649532 9.1660156 18.837891 C 8.9947405 18.579813 8.9831444 18.011532 8.9453125 17.496094 C 8.9304379 17.494828 8.9154914 17.494401 8.9003906 17.494141 z"/>
</svg>
